images/svgs/visitor.svg

<?xml version="1.0" encoding="iso-8859-1"?>
<!-- Generator: Adobe Illustrator 19.0.0, SVG Export Plug-In . SVG Version: 6.00 Build 0)  -->
<svg version="1.1" id="Capa_1" xmlns="http://www.w3.org/2000/svg" xmlns:xlink="http://www.w3.org/1999/xlink" x="0px" y="0px"
	 viewBox="0 0 480 480" style="enable-background:new 0 0 480 480;" xml:space="preserve">
<g>
	<g>
		<path d="M125.112,383.126c-5.46-3.631-11.692-5.937-18.2-6.736c12.484-9.827,20.161-24.531,21.088-40.392
			c0-52.896-30.456-64-56-64s-56,11.104-56,64c0.929,15.862,8.609,30.566,21.096,40.392C15.89,379.003-0.031,397.031,0,418.398v53.6
			c0,4.418,3.582,8,8,8h128c4.418,0,8-3.582,8-8v-53.6C144.009,404.219,136.918,390.978,125.112,383.126z M32.416,327.534
			C34.584,300.718,47.2,287.998,72,287.998c22.704,0,35.2,10.736,38.776,33.136l-26.656-16c-3.789-2.273-8.703-1.044-10.976,2.745
			c-0.3,0.5-0.544,1.03-0.728,1.583C68.368,321.606,46.512,326.198,32.416,327.534z M33.112,343.582
			c13.696-1.128,38.4-5.272,49.92-20.44l28.592,17.16C108.416,359.894,84.28,375.998,72,375.998
			C54.157,372.959,39.314,360.586,33.112,343.582z M78.608,422.062L72,428.686l-6.608-6.616L72,405.534L78.608,422.062z
			 M128,463.998H16v-45.6c0-14.58,11.82-26.4,26.4-26.4h17.76L48.568,421.03c-1.185,2.971-0.487,6.363,1.776,8.624l16,16
			c3.124,3.123,8.188,3.123,11.312,0l16-16c2.263-2.261,2.961-5.653,1.776-8.624l-11.616-29.032H101.6c14.58,0,26.4,11.82,26.4,26.4
			V463.998z"/>
	</g>
</g>
<g>
	<g>
		<path d="M293.112,383.126c-5.46-3.631-11.692-5.937-18.2-6.736c12.484-9.827,20.161-24.531,21.088-40.392
			c0-52.896-30.456-64-56-64s-56,11.104-56,64c0.929,15.862,8.609,30.566,21.096,40.392c-21.206,2.613-37.127,20.641-37.096,42.008
			v53.6c0,4.418,3.582,8,8,8h128c4.418,0,8-3.582,8-8v-53.6C312.009,404.219,304.918,390.978,293.112,383.126z M200.416,327.534
			c2.168-26.816,14.784-39.536,39.584-39.536c22.704,0,35.2,10.736,38.776,33.136l-26.656-16c-3.789-2.273-8.703-1.044-10.976,2.745
			c-0.3,0.5-0.544,1.03-0.728,1.583C236.368,321.606,214.512,326.198,200.416,327.534z M201.112,343.582
			c13.696-1.128,38.4-5.272,49.92-20.44l28.592,17.16c-3.208,19.592-27.344,35.696-39.624,35.696
			C222.157,372.959,207.314,360.586,201.112,343.582z M246.608,422.062L240,428.686l-6.608-6.616L240,405.534L246.608,422.062z
			 M296,463.998H184v-45.6c0-14.58,11.82-26.4,26.4-26.4h17.76l-11.616,29.032c-1.185,2.971-0.487,6.363,1.776,8.624l16,16
			c3.124,3.123,8.188,3.123,11.312,0l16-16c2.263-2.261,2.961-5.653,1.776-8.624l-11.592-29.032H269.6c14.58,0,26.4,11.82,26.4,26.4
			V463.998z"/>
	</g>
</g>
<g>
	<g>
		<path d="M461.112,383.126c-5.46-3.631-11.692-5.937-18.2-6.736c12.484-9.827,20.161-24.531,21.088-40.392
			c0-52.896-30.456-64-56-64s-56,11.104-56,64c0.929,15.862,8.609,30.566,21.096,40.392c-21.206,2.613-37.127,20.641-37.096,42.008
			v53.6c0,4.418,3.582,8,8,8h128c4.418,0,8-3.582,8-8v-53.6C480.009,404.219,472.918,390.978,461.112,383.126z M368.416,327.534
			c2.168-26.816,14.784-39.536,39.584-39.536c22.704,0,35.2,10.736,38.776,33.136l-26.656-16c-3.789-2.273-8.703-1.044-10.976,2.745
			c-0.3,0.5-0.544,1.03-0.728,1.583C404.368,321.606,382.512,326.198,368.416,327.534z M369.112,343.582
			c13.696-1.128,38.4-5.272,49.92-20.44l28.592,17.16c-3.208,19.592-27.344,35.696-39.624,35.696
			C390.157,372.959,375.314,360.586,369.112,343.582z M414.608,422.062L408,428.686l-6.608-6.616L408,405.534L414.608,422.062z
			 M464,463.998H352v-45.6c0-14.58,11.82-26.4,26.4-26.4h17.76l-11.616,29.032c-1.185,2.971-0.487,6.363,1.776,8.624l16,16
			c3.124,3.123,8.188,3.123,11.312,0l16-16c2.263-2.261,2.961-5.653,1.776-8.624l-11.592-29.032H437.6c14.58,0,26.4,11.82,26.4,26.4
			V463.998z"/>
	</g>
</g>
<g>
	<g>
		<path d="M368,239.998v-104c0-4.418-3.582-8-8-8h-72v-24c0-4.418-3.582-8-8-8h-48.6c-11.748-20.436-33.799-32.738-57.36-32
			C138.943,65.964,111.607,95.2,112,130.35c-0.013,20.888,5.944,41.344,17.168,58.96l32.256,50.688H152v16h224v-16H368z
			 M200,239.998h-9.424L200,225.19V239.998z M176,233.102l-33.328-52.384c-9.592-15.047-14.683-32.523-14.672-50.368
			c-0.453-26.524,20.044-48.709,46.52-50.352H176c26.51,0,48,21.49,48,48v2.352c0.017,17.856-5.074,35.343-14.672,50.4L176,233.102z
			 M272,239.998h-56v-39.96l6.832-10.728c11.224-17.616,17.181-38.072,17.168-58.96v-2.352c-0.019-5.399-0.718-10.775-2.08-16H272
			V239.998z M328,239.998h-16v-24h16V239.998z M352,151.998h-16v16h16v8h-16v16h16v48h-8v-32c0-4.418-3.582-8-8-8h-32
			c-4.418,0-8,3.582-8,8v32h-8v-48h16v-16h-16v-8h16v-16h-16v-8h64V151.998z"/>
	</g>
</g>
<g>
	<g>
		<rect x="248" y="119.998" width="16" height="16"/>
	</g>
</g>
<g>
	<g>
		<rect x="312" y="151.998" width="16" height="16"/>
	</g>
</g>
<g>
	<g>
		<rect x="312" y="175.998" width="16" height="16"/>
	</g>
</g>
<g>
	<g>
		<rect x="248" y="143.998" width="16" height="16"/>
	</g>
</g>
<g>
	<g>
		<rect x="248" y="167.998" width="16" height="16"/>
	</g>
</g>
<g>
	<g>
		<rect x="224" y="191.998" width="16" height="16"/>
	</g>
</g>
<g>
	<g>
		<rect x="248" y="191.998" width="16" height="16"/>
	</g>
</g>
<g>
	<g>
		<rect x="224" y="215.998" width="16" height="16"/>
	</g>
</g>
<g>
	<g>
		<rect x="248" y="215.998" width="16" height="16"/>
	</g>
</g>
<g>
	<g>
		<path d="M443.944,166.918l-15.688,3.16c0.984,4.888,1.784,9.888,2.4,14.856l15.864-1.888
			C445.872,177.654,445.008,172.23,443.944,166.918z"/>
	</g>
</g>
<g>
	<g>
		<path d="M36,167.302c-1.08,5.344-1.928,10.76-2.56,16.104l15.888,1.872c0.576-4.928,1.376-9.936,2.352-14.88L36,167.302z"/>
	</g>
</g>
<g>
	<g>
		<path d="M421.312,105.99l-13.936,7.856c2.456,4.344,4.8,8.848,6.88,13.4l14.504-6.752
			C426.472,115.574,423.96,110.694,421.312,105.99z"/>
	</g>
</g>
<g>
	<g>
		<path d="M403.136,78.934l-12.56,9.936c3.096,3.896,6.088,8,8.896,12.168l13.264-8.936
			C409.696,87.59,406.464,83.158,403.136,78.934z"/>
	</g>
</g>
<g>
	<g>
		<path d="M76.696,79.198c-3.368,4.24-6.6,8.68-9.616,13.176l13.296,8.904c2.776-4.152,5.76-8.248,8.864-12.176L76.696,79.198z"/>
	</g>
</g>
<g>
	<g>
		<path d="M380.96,55.046l-10.848,11.76c3.704,3.424,7.296,7,10.664,10.632l11.736-10.872
			C388.864,62.63,384.976,58.75,380.96,55.046z"/>
	</g>
</g>
<g>
	<g>
		<path d="M58.536,106.254c-2.64,4.696-5.144,9.592-7.432,14.544l14.512,6.72c2.12-4.576,4.432-9.096,6.856-13.408L58.536,106.254z"
			/>
	</g>
</g>
<g>
	<g>
		<path d="M44.848,135.894c-1.896,5.12-3.592,10.344-5.048,15.528l15.392,4.344c1.352-4.8,2.92-9.6,4.672-14.336L44.848,135.894z"/>
	</g>
</g>
<g>
	<g>
		<path d="M98.824,55.238c-4,3.672-7.856,7.552-11.536,11.536L99.04,77.63c3.36-3.664,6.976-7.232,10.64-10.64L98.824,55.238z"/>
	</g>
</g>
<g>
	<g>
		<path d="M435.048,135.566l-15,5.56c1.752,4.712,3.328,9.528,4.688,14.32l15.392-4.376
			C438.648,145.878,436.928,140.67,435.048,135.566z"/>
	</g>
</g>
<g>
	<g>
		<path d="M183.416,7.798c-5.248,1.488-10.472,3.2-15.504,5.048l5.544,15c4.648-1.712,9.472-3.28,14.32-4.656L183.416,7.798z"/>
	</g>
</g>
<g>
	<g>
		<path d="M215.416,1.446c-5.344,0.632-10.768,1.488-16.112,2.536l3.096,15.704c4.944-0.976,9.952-1.776,14.888-2.352L215.416,1.446
			z"/>
	</g>
</g>
<g>
	<g>
		<path d="M231.68,0.158l0.608,16c4.992-0.176,10.08-0.192,15.072,0l0.64-16C242.584-0.058,237.096-0.042,231.68,0.158z"/>
	</g>
</g>
<g>
	<g>
		<path d="M152.84,19.086c-4.904,2.264-9.8,4.8-14.528,7.424l7.84,13.952c4.368-2.456,8.872-4.8,13.408-6.856L152.84,19.086z"/>
	</g>
</g>
<g>
	<g>
		<path d="M264.232,1.398L262.4,17.286c4.92,0.568,9.928,1.352,14.888,2.32l3.064-15.704C274.984,2.854,269.6,2.014,264.232,1.398z"
			/>
	</g>
</g>
<g>
	<g>
		<path d="M355.32,34.862l-8.872,13.312c4.128,2.752,8.224,5.728,12.192,8.848l9.888-12.576
			C364.232,41.07,359.792,37.838,355.32,34.862z"/>
	</g>
</g>
<g>
	<g>
		<path d="M296.224,7.694l-4.296,15.408c4.8,1.344,9.6,2.896,14.32,4.624l5.512-15.016C306.672,10.83,301.448,9.15,296.224,7.694z"
			/>
	</g>
</g>
<g>
	<g>
		<path d="M124.408,35.054c-4.528,3.048-8.968,6.272-13.176,9.6l9.904,12.56c3.888-3.072,8-6.056,12.192-8.88L124.408,35.054z"/>
	</g>
</g>
<g>
	<g>
		<path d="M326.848,18.942L320.16,33.47c4.52,2.088,9.048,4.392,13.44,6.832l7.8-13.968
			C336.648,23.694,331.76,21.198,326.848,18.942z"/>
	</g>
</g>
<g>
	<g>
		<path d="M176,95.998c-17.673,0-32,14.327-32,32s14.327,32,32,32s32-14.327,32-32S193.673,95.998,176,95.998z M176,143.998
			c-8.837,0-16-7.163-16-16s7.163-16,16-16s16,7.163,16,16S184.837,143.998,176,143.998z"/>
	</g>
</g>
<g>
</g>
<g>
</g>
<g>
</g>
<g>
</g>
<g>
</g>
<g>
</g>
<g>
</g>
<g>
</g>
<g>
</g>
<g>
</g>
<g>
</g>
<g>
</g>
<g>
</g>
<g>
</g>
<g>
</g>
</svg>

<?xml version="1.0" encoding="UTF-8"?>
<svg width="480px" height="480px" viewBox="0 0 480 480" version="1.1" xmlns="http://www.w3.org/2000/svg" xmlns:xlink="http://www.w3.org/1999/xlink">
    <!-- Generator: Sketch 49.1 (51147) - http://www.bohemiancoding.com/sketch -->
    <title>Slice 1</title>
    <desc>Created with Sketch.</desc>
    <defs></defs>
    <g id="Page-1" stroke="none" stroke-width="1" fill="none" fill-rule="evenodd">
        <g id="visitor" fill="#FFFFFF" fill-rule="nonzero">
            <path d="M125.112,383.126 C119.652,379.495 113.42,377.189 106.912,376.39 C119.396,366.563 127.073,351.859 128,335.998 C128,283.102 97.544,271.998 72,271.998 C46.456,271.998 16,283.102 16,335.998 C16.929,351.86 24.609,366.564 37.096,376.39 C15.89,379.003 -0.031,397.031 6.77626358e-21,418.398 L6.77626358e-21,471.998 C6.77626358e-21,476.416 3.582,479.998 8,479.998 L136,479.998 C140.418,479.998 144,476.416 144,471.998 L144,418.398 C144.009,404.219 136.918,390.978 125.112,383.126 Z M32.416,327.534 C34.584,300.718 47.2,287.998 72,287.998 C94.704,287.998 107.2,298.734 110.776,321.134 L84.12,305.134 C80.331,302.861 75.417,304.09 73.144,307.879 C72.844,308.379 72.6,308.909 72.416,309.462 C68.368,321.606 46.512,326.198 32.416,327.534 Z M33.112,343.582 C46.808,342.454 71.512,338.31 83.032,323.142 L111.624,340.302 C108.416,359.894 84.28,375.998 72,375.998 C54.157,372.959 39.314,360.586 33.112,343.582 Z M78.608,422.062 L72,428.686 L65.392,422.07 L72,405.534 L78.608,422.062 Z M128,463.998 L16,463.998 L16,418.398 C16,403.818 27.82,391.998 42.4,391.998 L60.16,391.998 L48.568,421.03 C47.383,424.001 48.081,427.393 50.344,429.654 L66.344,445.654 C69.468,448.777 74.532,448.777 77.656,445.654 L93.656,429.654 C95.919,427.393 96.617,424.001 95.432,421.03 L83.816,391.998 L101.6,391.998 C116.18,391.998 128,403.818 128,418.398 L128,463.998 Z" id="Shape"></path>
            <path d="M293.112,383.126 C287.652,379.495 281.42,377.189 274.912,376.39 C287.396,366.563 295.073,351.859 296,335.998 C296,283.102 265.544,271.998 240,271.998 C214.456,271.998 184,283.102 184,335.998 C184.929,351.86 192.609,366.564 205.096,376.39 C183.89,379.003 167.969,397.031 168,418.398 L168,471.998 C168,476.416 171.582,479.998 176,479.998 L304,479.998 C308.418,479.998 312,476.416 312,471.998 L312,418.398 C312.009,404.219 304.918,390.978 293.112,383.126 Z M200.416,327.534 C202.584,300.718 215.2,287.998 240,287.998 C262.704,287.998 275.2,298.734 278.776,321.134 L252.12,305.134 C248.331,302.861 243.417,304.09 241.144,307.879 C240.844,308.379 240.6,308.909 240.416,309.462 C236.368,321.606 214.512,326.198 200.416,327.534 Z M201.112,343.582 C214.808,342.454 239.512,338.31 251.032,323.142 L279.624,340.302 C276.416,359.894 252.28,375.998 240,375.998 C222.157,372.959 207.314,360.586 201.112,343.582 Z M246.608,422.062 L240,428.686 L233.392,422.07 L240,405.534 L246.608,422.062 Z M296,463.998 L184,463.998 L184,418.398 C184,403.818 195.82,391.998 210.4,391.998 L228.16,391.998 L216.544,421.03 C215.359,424.001 216.057,427.393 218.32,429.654 L234.32,445.654 C237.444,448.777 242.508,448.777 245.632,445.654 L261.632,429.654 C263.895,427.393 264.593,424.001 263.408,421.03 L251.816,391.998 L269.6,391.998 C284.18,391.998 296,403.818 296,418.398 L296,463.998 Z" id="Shape"></path>
            <path d="M461.112,383.126 C455.652,379.495 449.42,377.189 442.912,376.39 C455.396,366.563 463.073,351.859 464,335.998 C464,283.102 433.544,271.998 408,271.998 C382.456,271.998 352,283.102 352,335.998 C352.929,351.86 360.609,366.564 373.096,376.39 C351.89,379.003 335.969,397.031 336,418.398 L336,471.998 C336,476.416 339.582,479.998 344,479.998 L472,479.998 C476.418,479.998 480,476.416 480,471.998 L480,418.398 C480.009,404.219 472.918,390.978 461.112,383.126 Z M368.416,327.534 C370.584,300.718 383.2,287.998 408,287.998 C430.704,287.998 443.2,298.734 446.776,321.134 L420.12,305.134 C416.331,302.861 411.417,304.09 409.144,307.879 C408.844,308.379 408.6,308.909 408.416,309.462 C404.368,321.606 382.512,326.198 368.416,327.534 Z M369.112,343.582 C382.808,342.454 407.512,338.31 419.032,323.142 L447.624,340.302 C444.416,359.894 420.28,375.998 408,375.998 C390.157,372.959 375.314,360.586 369.112,343.582 Z M414.608,422.062 L408,428.686 L401.392,422.07 L408,405.534 L414.608,422.062 Z M464,463.998 L352,463.998 L352,418.398 C352,403.818 363.82,391.998 378.4,391.998 L396.16,391.998 L384.544,421.03 C383.359,424.001 384.057,427.393 386.32,429.654 L402.32,445.654 C405.444,448.777 410.508,448.777 413.632,445.654 L429.632,429.654 C431.895,427.393 432.593,424.001 431.408,421.03 L419.816,391.998 L437.6,391.998 C452.18,391.998 464,403.818 464,418.398 L464,463.998 Z" id="Shape"></path>
            <path d="M368,239.998 L368,135.998 C368,131.58 364.418,127.998 360,127.998 L288,127.998 L288,103.998 C288,99.58 284.418,95.998 280,95.998 L231.4,95.998 C219.652,75.562 197.601,63.26 174.04,63.998 C138.943,65.964 111.607,95.2 112,130.35 C111.987,151.238 117.944,171.694 129.168,189.31 L161.424,239.998 L152,239.998 L152,255.998 L376,255.998 L376,239.998 L368,239.998 Z M200,239.998 L190.576,239.998 L200,225.19 L200,239.998 Z M176,233.102 L142.672,180.718 C133.08,165.671 127.989,148.195 128,130.35 C127.547,103.826 148.044,81.641 174.52,79.998 L176,79.998 C202.51,79.998 224,101.488 224,127.998 L224,130.35 C224.017,148.206 218.926,165.693 209.328,180.75 L176,233.102 Z M272,239.998 L216,239.998 L216,200.038 L222.832,189.31 C234.056,171.694 240.013,151.238 240,130.35 L240,127.998 C239.981,122.599 239.282,117.223 237.92,111.998 L272,111.998 L272,239.998 Z M328,239.998 L312,239.998 L312,215.998 L328,215.998 L328,239.998 Z M352,151.998 L336,151.998 L336,167.998 L352,167.998 L352,175.998 L336,175.998 L336,191.998 L352,191.998 L352,239.998 L344,239.998 L344,207.998 C344,203.58 340.418,199.998 336,199.998 L304,199.998 C299.582,199.998 296,203.58 296,207.998 L296,239.998 L288,239.998 L288,191.998 L304,191.998 L304,175.998 L288,175.998 L288,167.998 L304,167.998 L304,151.998 L288,151.998 L288,143.998 L352,143.998 L352,151.998 Z" id="Shape"></path>
            <rect id="Rectangle-path" x="248" y="119.998" width="16" height="16"></rect>
            <rect id="Rectangle-path" x="312" y="151.998" width="16" height="16"></rect>
            <rect id="Rectangle-path" x="312" y="175.998" width="16" height="16"></rect>
            <rect id="Rectangle-path" x="248" y="143.998" width="16" height="16"></rect>
            <rect id="Rectangle-path" x="248" y="167.998" width="16" height="16"></rect>
            <rect id="Rectangle-path" x="224" y="191.998" width="16" height="16"></rect>
            <rect id="Rectangle-path" x="248" y="191.998" width="16" height="16"></rect>
            <rect id="Rectangle-path" x="224" y="215.998" width="16" height="16"></rect>
            <rect id="Rectangle-path" x="248" y="215.998" width="16" height="16"></rect>
            <path d="M443.944,166.918 L428.256,170.078 C429.24,174.966 430.04,179.966 430.656,184.934 L446.52,183.046 C445.872,177.654 445.008,172.23 443.944,166.918 Z" id="Shape"></path>
            <path d="M36,167.302 C34.92,172.646 34.072,178.062 33.44,183.406 L49.328,185.278 C49.904,180.35 50.704,175.342 51.68,170.398 L36,167.302 Z" id="Shape"></path>
            <path d="M421.312,105.99 L407.376,113.846 C409.832,118.19 412.176,122.694 414.256,127.246 L428.76,120.494 C426.472,115.574 423.96,110.694 421.312,105.99 Z" id="Shape"></path>
            <path d="M403.136,78.934 L390.576,88.87 C393.672,92.766 396.664,96.87 399.472,101.038 L412.736,92.102 C409.696,87.59 406.464,83.158 403.136,78.934 Z" id="Shape"></path>
            <path d="M76.696,79.198 C73.328,83.438 70.096,87.878 67.08,92.374 L80.376,101.278 C83.152,97.126 86.136,93.03 89.24,89.102 L76.696,79.198 Z" id="Shape"></path>
            <path d="M380.96,55.046 L370.112,66.806 C373.816,70.23 377.408,73.806 380.776,77.438 L392.512,66.566 C388.864,62.63 384.976,58.75 380.96,55.046 Z" id="Shape"></path>
            <path d="M58.536,106.254 C55.896,110.95 53.392,115.846 51.104,120.798 L65.616,127.518 C67.736,122.942 70.048,118.422 72.472,114.11 L58.536,106.254 Z" id="Shape"></path>
            <path d="M44.848,135.894 C42.952,141.014 41.256,146.238 39.8,151.422 L55.192,155.766 C56.544,150.966 58.112,146.166 59.864,141.43 L44.848,135.894 Z" id="Shape"></path>
            <path d="M98.824,55.238 C94.824,58.91 90.968,62.79 87.288,66.774 L99.04,77.63 C102.4,73.966 106.016,70.398 109.68,66.99 L98.824,55.238 Z" id="Shape"></path>
            <path d="M435.048,135.566 L420.048,141.126 C421.8,145.838 423.376,150.654 424.736,155.446 L440.128,151.07 C438.648,145.878 436.928,140.67 435.048,135.566 Z" id="Shape"></path>
            <path d="M183.416,7.798 C178.168,9.286 172.944,10.998 167.912,12.846 L173.456,27.846 C178.104,26.134 182.928,24.566 187.776,23.19 L183.416,7.798 Z" id="Shape"></path>
            <path d="M215.416,1.446 C210.072,2.078 204.648,2.934 199.304,3.982 L202.4,19.686 C207.344,18.71 212.352,17.91 217.288,17.334 L215.416,1.446 Z" id="Shape"></path>
            <path d="M231.68,0.158 L232.288,16.158 C237.28,15.982 242.368,15.966 247.36,16.158 L248,0.158 C242.584,-0.058 237.096,-0.042 231.68,0.158 Z" id="Shape"></path>
            <path d="M152.84,19.086 C147.936,21.35 143.04,23.886 138.312,26.51 L146.152,40.462 C150.52,38.006 155.024,35.662 159.56,33.606 L152.84,19.086 Z" id="Shape"></path>
            <path d="M264.232,1.398 L262.4,17.286 C267.32,17.854 272.328,18.638 277.288,19.606 L280.352,3.902 C274.984,2.854 269.6,2.014 264.232,1.398 Z" id="Shape"></path>
            <path d="M355.32,34.862 L346.448,48.174 C350.576,50.926 354.672,53.902 358.64,57.022 L368.528,44.446 C364.232,41.07 359.792,37.838 355.32,34.862 Z" id="Shape"></path>
            <path d="M296.224,7.694 L291.928,23.102 C296.728,24.446 301.528,25.998 306.248,27.726 L311.76,12.71 C306.672,10.83 301.448,9.15 296.224,7.694 Z" id="Shape"></path>
            <path d="M124.408,35.054 C119.88,38.102 115.44,41.326 111.232,44.654 L121.136,57.214 C125.024,54.142 129.136,51.158 133.328,48.334 L124.408,35.054 Z" id="Shape"></path>
            <path d="M326.848,18.942 L320.16,33.47 C324.68,35.558 329.208,37.862 333.6,40.302 L341.4,26.334 C336.648,23.694 331.76,21.198 326.848,18.942 Z" id="Shape"></path>
            <path d="M176,95.998 C158.327,95.998 144,110.325 144,127.998 C144,145.671 158.327,159.998 176,159.998 C193.673,159.998 208,145.671 208,127.998 C208,110.325 193.673,95.998 176,95.998 Z M176,143.998 C167.163,143.998 160,136.835 160,127.998 C160,119.161 167.163,111.998 176,111.998 C184.837,111.998 192,119.161 192,127.998 C192,136.835 184.837,143.998 176,143.998 Z" id="Shape"></path>
        </g>
    </g>
</svg>
